X: 25847
T: Master Shanley's
R: hornpipe
M: 4/4
K: Gmajor
|:BA|GEDB, D2 (3B,A,G,|B,EDB, D2 EG|Bd (3ddd ed (3ddd|BAGB A2 BA|
BEDB, D (3B,A,G,|B,EDB, D2 EG|BddB AGBA|G2 GF G2:|
|:AB|cE (3EEE cded|BD (3DDD B2 AB|cE (3EEE cBcd|edeg a2 ge|
dBAG B2 AG|BG (3GGG EGDC|B,D (3DDD CEGE|DcBA G2:|

